X:1
T:March by Dobney TS.012
T:March by Dobney TS.012
T:Dobney "a favorite Scotch Air"
C:Dobney
C:"a favorite Scotch Air"
L:1/8
Q:1/4=120
M:4/4
K:D
V:1 treble 
V:1
 (A/B/c/) | d2 (d>d) d3 (c/d/) | e2 e>e e3 (f/g/) | f>fd>d e>ec>c | d2 d>d d2 f>g | a3 g b>ag>f | %6
 g2 e>e e2 e>f | g3 e gfed | f2 d>d d2 A2 | B2 (gf) fe dc | c2 c>c c2 :: (c>d) | %12
 e2 (e>e) e2 (d>e) | f2 d>d d2 (e>f) | g2 f2 e2 d2 | e2 (e>e) e2 f>g | a>af>f g>ge>e | %17
 f>fd>d e2 (f>g) | a>af>f g>ge>e | f>fd>d e2 f>g | f>ef>g f2 e2 | d2 d>d d2 :| %22

